img/social/Telegram.svg

<svg width="38" height="38" viewBox="0 0 38 38" fill="none" xmlns="http://www.w3.org/2000/svg">
<path fill-rule="evenodd" clip-rule="evenodd" d="M38 19C38 29.4989 29.4989 38 19 38C8.50114 38 0 29.4989 0 19C0 8.50114 8.50114 0 19 0C29.4989 0 38 8.50114 38 19Z" fill="#05A1EC"/>
<path fill-rule="evenodd" clip-rule="evenodd" d="M15.5143 19.6794L23.1094 15.3257L24.5412 14.5125C24.7552 14.3893 24.9609 14.6521 24.7798 14.8082L17.481 20.7637L17.1354 21.043C17.0613 21.1088 17.0119 21.1909 16.9955 21.2895L16.9214 21.922L16.7075 23.7045C16.7075 23.721 16.7075 23.7456 16.691 23.762C16.6745 23.7785 16.6581 23.7867 16.6334 23.7867C16.6087 23.7949 16.5923 23.7867 16.5758 23.7703C16.5593 23.7538 16.5511 23.7374 16.5429 23.7128L15.9504 21.9384L15.3333 20.1148C15.3086 20.0327 15.3168 19.9423 15.3497 19.8601C15.3826 19.7862 15.4402 19.7205 15.5143 19.6794ZM26.8452 12.0564L26.549 12.1632L10.3796 17.9708C10.2644 18.0119 10.1656 18.0858 10.0998 18.1762C10.034 18.2747 9.99281 18.398 10.001 18.513C10.0093 18.6362 10.0504 18.7512 10.1327 18.8415C10.2068 18.9319 10.3137 18.9976 10.4289 19.0223L14.6174 20.1641L15.3909 22.4477L16.1726 24.7396C16.222 24.8464 16.2878 24.9531 16.3865 25.0271C16.4771 25.1092 16.584 25.1585 16.7075 25.1832C16.8227 25.216 16.9461 25.2078 17.0613 25.1749C17.1765 25.1421 17.2835 25.0846 17.374 25.0024L19.5381 22.9652L23.7759 25.8403C24.3026 26.1935 25.0349 25.9307 25.1666 25.3474L27.9808 12.9435C28.1207 12.3357 27.4706 11.8264 26.8452 12.0564Z" fill="white"/>
</svg>

<svg width="38" height="38" fill="none" xmlns="http://www.w3.org/2000/svg"><path fill-rule="evenodd" clip-rule="evenodd" d="M38 19c0 10.499-8.501 19-19 19S0 29.499 0 19 8.501 0 19 0s19 8.501 19 19Z" fill="#05A1EC"/><path fill-rule="evenodd" clip-rule="evenodd" d="m15.514 19.68 7.595-4.354 1.432-.814c.214-.123.42.14.239.296l-7.299 5.956-.346.279a.416.416 0 0 0-.14.247l-.074.632-.213 1.782c0 .017 0 .042-.017.058a.075.075 0 0 1-.058.025c-.024.008-.04 0-.057-.017a.132.132 0 0 1-.033-.057l-.593-1.775-.617-1.823a.389.389 0 0 1 .017-.255.389.389 0 0 1 .164-.18Zm11.331-7.624-.296.107-16.17 5.808a.595.595 0 0 0-.28.205.557.557 0 0 0-.098.337c.008.123.05.238.132.328.074.09.18.157.296.181l4.188 1.142.774 2.284.782 2.292c.049.106.115.213.214.287.09.082.197.131.32.156a.648.648 0 0 0 .354-.008.78.78 0 0 0 .313-.173l2.164-2.037 4.238 2.875c.527.354 1.259.09 1.39-.493l2.815-12.404c.14-.607-.51-1.117-1.136-.887Z" fill="#fff"/></svg>
